X:1
T:The Awakening
T:Thoro Harris, 1920
T:The Awakening
T:Public Domain
T:Public Domain
T:Public Domain
C:Thoro Harris, 1920
Z:Public Domain
%%score ( 1 2 ) ( 3 4 )
L:1/8
M:4/4
K:Ab
V:1 treble 
V:2 treble 
V:3 bass 
V:4 bass 
V:1
 E | [Ac]2 [Ac]2 [EA]3 [=EA] | [FB]2 [FB]2 [DF]3 [DF] | [DG][DG] [DG]>[DA] [DG]3 [B,D] | %4
w: 1.~The|ing breaks, ’tis bright|and clear, The sha-|dows of the night are fly-|
w: 2.~By|and creed are mil-|lions bound, But God|hath sent the Word to loose|
w: 3.~Sal-|tion nears— the saints|a- rise, And from|the sleep of death the slum-|
w: 4.~Our|ious King is com-|ing soon— It may|be dark- est night, it may|
w: 5.~A-|ye na- tions, from|the dead, With ev-|er- last- ing joy let praise|
w: 6.~All|and glo- ry to|His Name! The King|of kings is He, earth’s Sov-|
 [CF][CE] [CE]>[=B,F] [CE]3 [CE] | [Ec]2 [=Ec]2 [FA]3 [_GA] | [Fd]2 [Fd]2 [DF]4 | %7
w: ing swift a- way; A stir-|ring cry sa- lutes|the ear: Je-|
w: the ir- on band— De- liv-|erance dawns with this|glad sound: Je-|
w: b’ring na- tions wake; We too|shall mount the star-|ry skies. Je-|
w: be morn or noon; In glo-|ry then His saints|will reign. Je-|
w: your tongues em- ploy; By this|sweet hope be com-|fort- ed; Je-|
w: ’reign yet to be; Let all|the saints a- loud|pro- claim, Je-|
 [DE]2 [DG][GB] [Ac]2 [EB]2 | [EA]6 z ||"^Refrain" [CE] | [Ec][=Dc] [Ec]>[F=d] [Ec]3 [_GA] | %11
w: sus is com- ing soon.||||
w: sus is com- ing soon.||||
w: sus is com- ing soon.|The|song|of ju- bi- lee, It sweeps|
w: sus is com- ing soon.||||
w: sus is com- ing soon.||||
w: sus is com- ing soon.||||
 [FB][DF] [DF]>[DG] [DF]3 [DF] | [DG][DG] [DG]>[DA] [DG]3 [B,D] | [CF][CE] [CE]>[DF] [CE]3 [CE] | %14
w: |||
w: |||
w: o’er land and sea; With thou-|sand voic- es strong The cho-|rus speeds a- long— One word|
w: |||
w: |||
w: |||
 [Ec][Ec][=Ec][Ec] (F_EF)[_GA] | dddd [DF]4 | [DE]2 [EG][GB] [Ac]2 [GB]2 | A6 z2 | %18
w: ||||
w: ||||
w: of hope and cheer: The * * king-|now is near, Je- sus|ing soon, Je- sus is|com-|
w: ||||
w: ||||
w: ||||
 [Fd]2 [Fc][FB] [Ae]2 [EG]2 | [EA]6 z2 |] %20
w: ||
w: ||
w: soon! * * * *||
w: ||
w: ||
w: ||
V:2
 E | x8 | x8 | x8 | x8 | x8 | x8 | x8 | x7 || x | x8 | x8 | x8 | x8 | x4 A3 x | F2 F2 x4 | x8 | %17
w: morn-|||||||||||||||||
w: form|||||||||||||||||
w: va-||||||||||||||dom|is com-||
w: glor-|||||||||||||||||
w: wake,|||||||||||||||||
w: praise|||||||||||||||||
 A6 x2 | x8 | x8 |] %20
w: |||
w: |||
w: ing|||
w: |||
w: |||
w: |||
V:3
 [A,C] | [A,E]2 [A,E]2 [A,C]3 [A,C] | [D,D]2 [D,D]2 [D,B,]3 [D,B,] | %3
w: ~|~ ~ ~ ~|~ ~ ~ ~|
 [E,B,]E, [E,D]>[E,C] [E,B,]3 [E,G,] | [A,,A,][A,,A,] [A,,A,]>[A,,A,] [A,,A,]3 [A,,A,] | %5
w: ~ ~ ~ ~ ~ ~|~ ~ ~ ~ ~ ~|
 A,2 [G,B,]2 [F,C]3 [E,C] | (DC)(B,A,) (G,2 F,2) | [E,G,]2 [E,B,][E,F] [E,E]2 [E,D]2 | [A,C]6 z || %9
w: ~ ~ ~ ~|~ * ~ * ~ *|~ ~ ~ ~ ~|~|
 [A,,A,] | [A,,A,][A,,A,] [C,A,]>[E,A,] A,3 [A,C] | [D,D][D,B,] [D,B,]>[D,B,] [D,B,]3 [D,B,] | %12
w: ~|~ ~ ~ ~ ~ ~|~ ~ ~ ~ ~ ~|
 [E,B,]E, [E,D]>[E,C] [E,B,]3 [E,G,] | [A,,A,][A,,A,] [A,,A,]>[A,,A,] [A,,A,]3 [A,,A,] | %14
w: ~ ~ ~ ~ ~ ~|~ ~ ~ The king- dom|
 A,A,[G,B,][G,B,] (F,_G,)F,[E,C] | (DC)(B,A,) (G,2 F,2) | [E,G,]2 [E,B,][E,F] [E,E]2 [=E,D]2 | %17
w: now is near, * * * * *|||
 [F,C]6 z2 | [B,,B,]2 [C,=A,][D,B,] [E,C]2 [E,D]2 | [A,,C]6 z2 |] %20
w: |||
V:4
 x | x8 | x8 | x E, x6 | x8 | A,2 x6 | D,2 D,2 D,4 | x8 | x7 || x | x4 A,3 x | x8 | x E, x6 | x8 | %14
w: |||~||~|~ ~ ~||||~||~||
 A,A, x C3 x2 | D,2 D,2 D,4 | x8 | x8 | x8 | x8 |] %20
w: ||||||

